assets/Right-facing fist/Dark/Flat/right-facing_fist_flat_dark.svg

<svg width="32" height="32" viewBox="0 0 32 32" fill="none" xmlns="http://www.w3.org/2000/svg">
<rect width="9.6875" height="6.8125" transform="matrix(-1 0 0 1 25 16)" fill="#341A1C"/>
<path d="M30 12.63V20.37C30 23.48 27.48 25.99 24.38 25.99H21.83C22.2 27.05 21.97 28.27 21.12 29.11C19.95 30.28 18.05 30.28 16.88 29.11L14.4 26.63C13.99 26.22 13.43 25.99 12.85 25.99C9.45001 25.99 6.62 23.51 6.09 20.25C6.07 20.1 5.94 19.99 5.78 19.99H3.96875C2.84375 19.99 2 19.5625 2 18.0625V10.9062C2 9 2.94 8 4.9375 8H25.37C27.93 8 30 10.07 30 12.63ZM18.4062 21.9219C18.9663 20.7219 19.5625 20.0938 20.51 19.8125C21.4575 19.5312 22.5569 19.5469 23.3281 19.3906C24.0994 19.2344 23.99 17.99 23.99 17.99C23.99 17.45 23.55 17.01 23.01 17.01H16.82C16.35 17.01 15.99 17.42 16.05 17.89C16.21 19.01 17.7262 21.0119 18.4062 21.9219Z" fill="#573739"/>
<path fill-rule="evenodd" clip-rule="evenodd" d="M21.8502 25.99C21.5826 25.026 21.0955 24.4581 19.8906 23.5312C18.7252 22.6347 18.3125 21.7969 18.3125 21.7969C18.3139 21.7986 18.3153 21.8004 18.3167 21.8022C18.3274 21.8165 18.338 21.8305 18.3483 21.8444C18.3682 21.871 18.3876 21.8969 18.4062 21.9219C18.4076 21.919 18.409 21.9161 18.4103 21.9132C19.1619 22.7668 21.1233 24.1875 23.75 24.1875C26.5 24.1875 28.8958 22.5208 29.75 21.6875V22.0339C29.0406 24.3284 26.9023 25.99 24.38 25.99H21.8502Z" fill="#341A1C"/>
<path d="M25.5952 14.7854C24.672 15.7664 23.9688 17.1214 23.9688 18L21.6406 17.4688C22.4139 15.7748 23.4366 14.5717 25.407 14.3495C25.639 14.3234 25.7552 14.6154 25.5952 14.7854Z" fill="#341A1C"/>
</svg>

<svg xmlns="http://www.w3.org/2000/svg" width="32" height="32" fill="none"><path fill="#341A1C" d="M25 16h-9.688v6.813H25z"/><path fill="#573739" d="M30 12.63v7.74c0 3.11-2.52 5.62-5.62 5.62h-2.55c.37 1.06.14 2.28-.71 3.12a3 3 0 0 1-4.24 0l-2.48-2.48c-.41-.41-.97-.64-1.55-.64a6.85 6.85 0 0 1-6.76-5.74.305.305 0 0 0-.31-.26H3.969C2.844 19.99 2 19.563 2 18.063v-7.157C2 9 2.94 8 4.938 8H25.37C27.93 8 30 10.07 30 12.63Zm-11.594 9.292c.56-1.2 1.157-1.828 2.104-2.11.947-.28 2.047-.265 2.818-.421.771-.157.662-1.401.662-1.401 0-.54-.44-.98-.98-.98h-6.19c-.47 0-.83.41-.77.88.16 1.12 1.676 3.122 2.356 4.032Z"/><path fill="#341A1C" fill-rule="evenodd" d="M21.85 25.99c-.267-.964-.755-1.532-1.96-2.459-1.165-.896-1.578-1.734-1.578-1.734a.245.245 0 0 1 .005.005l.031.042.058.078.004-.009c.752.854 2.713 2.274 5.34 2.274 2.75 0 5.146-1.666 6-2.5v.347a5.621 5.621 0 0 1-5.37 3.956h-2.53Z" clip-rule="evenodd"/><path fill="#341A1C" d="M25.595 14.785c-.923.981-1.626 2.336-1.626 3.215l-2.328-.531c.773-1.694 1.796-2.897 3.766-3.12.232-.026.348.266.188.436Z"/></svg>
